!! 00000] TT[WS
!!!OTL: Da yengtao
!!!ARE: Asia, China, Shanxi Xingxian
!! Ethnic Group: Han
!! WII, 107 (3)
!!!SCT: J0559
!!!YEM: Copyright 1995, estate of Helmut Schaffrath.
**kern
*ICvox
*Ivox
*M2/4
*k[f#c#g#]
*A:
{8cc#
8ee
8ff#
8aa
=1
2ee
=2
4ff#
8cc#
8b
=3
8a
8b
4a
=4
4ff#
8cc#
8b
=5
8a
8b
8cc#
8ee
=6
2a}
=7
{8b
4b
8cc#
=8
4ee
4ee
=9
4b
8cc#
8b
=10
8a
8f#
4a}
=11
{4b
4cc#
=12
8f#
8b
8a
8f#
=13
8e
8c#
8e
8f#
=14
8f#
8e
4c#
=15
2a}
==
!!!AGN: Xiaodiao. Qingge, Sichun
!!!ONB: ESAC (Essen Associative Code) Database: CHINA
!!!AMT: simple duple
!!!AIN: vox
!!!EED: Helmut Schaffrath
!!!EEV: 1.0
*-
